src/static/images/correctiv.svg

<svg width="225" height="30" viewBox="0 0 225 30" version="1.1" xmlns="http://www.w3.org/2000/svg" xmlns:xlink="http://www.w3.org/1999/xlink">
<title>correctiv</title>
<desc>Created using Figma</desc>
<g id="Canvas" transform="translate(527 44)">
<g id="correctiv">
<g id="Vector">
<use xlink:href="#path0_fill" transform="translate(-527 -44)" fill="#BDBDBD"/>
</g>
</g>
</g>
<defs>
<path id="path0_fill" d="M 186.522 29.5109L 192.5 29.5109L 192.5 23.4783L 186.522 23.4783L 186.522 29.5109ZM 6.03261 15C 6.03261 9.18478 10.1087 5.16304 15.3261 5.16304C 17.6087 5.16304 19.7826 5.54348 21.3587 6.30435L 23.2065 1.57609C 20.7065 0.434782 18.0978 -1.65856e-06 15.2174 -1.65856e-06C 7.06522 -1.65856e-06 -3.08932e-14 5.97826 -3.08932e-14 15C -3.08932e-14 24.2935 7.22826 30 15.5435 30C 18.3696 30 21.087 29.5652 23.4239 28.3696L 21.5761 23.587C 19.8913 24.4565 17.9348 24.837 15.6522 24.837C 10.7609 24.837 6.03261 21.413 6.03261 15ZM 51.087 15C 51.087 20.8152 46.8478 24.837 41.6304 24.837C 36.3587 24.837 32.1739 20.8152 32.1739 15C 32.1739 9.18478 36.413 5.16304 41.6304 5.16304C 46.8478 5.16304 51.087 9.18478 51.087 15ZM 57.1196 15C 57.1196 6.25 50.2717 -1.65856e-06 41.6304 -1.65856e-06C 32.9348 -1.65856e-06 26.1413 6.19565 26.1413 15C 26.1413 23.8043 32.9891 30 41.6304 30C 50.3261 30 57.1196 23.8043 57.1196 15ZM 70.2717 16.087L 67.2283 16.087L 67.2283 5.48913L 71.1413 5.48913C 74.4022 5.48913 76.6304 7.33696 76.6304 10.7609C 76.6304 14.2935 74.4022 16.087 70.2717 16.087ZM 83.2609 29.5109L 74.0761 20.4891C 79.2935 19.3478 82.663 15.7065 82.663 10.7065C 82.663 5.05435 78.3696 0.543477 71.25 0.543477L 61.3043 0.543477L 61.3043 29.5109L 67.2826 29.5109L 67.2826 20.7609L 75.7609 29.5109L 83.2609 29.5109ZM 96.413 16.087L 93.3696 16.087L 93.3696 5.48913L 97.2826 5.48913C 100.543 5.48913 102.772 7.33696 102.772 10.7609C 102.772 14.2935 100.543 16.087 96.413 16.087ZM 109.457 29.5109L 100.272 20.4891C 105.489 19.3478 108.859 15.7065 108.859 10.7065C 108.859 5.05435 104.565 0.543477 97.4456 0.543477L 87.5 0.543477L 87.5 29.5109L 93.4783 29.5109L 93.4783 20.7609L 101.957 29.5109L 109.457 29.5109ZM 113.587 29.5109L 131.739 29.5109L 131.739 24.4565L 119.511 24.4565L 119.511 18.4239L 129.457 18.4239L 129.457 13.3696L 119.511 13.3696L 119.511 5.59783L 131.359 5.59783L 131.359 0.543477L 113.587 0.543477L 113.587 29.5109ZM 140.652 15C 140.652 9.18478 144.728 5.16304 149.946 5.16304C 152.228 5.16304 154.402 5.54348 155.978 6.30435L 157.826 1.57609C 155.326 0.434782 152.717 -1.65856e-06 149.837 -1.65856e-06C 141.685 -1.65856e-06 134.62 5.97826 134.62 15C 134.62 24.2935 141.848 30 150.163 30C 152.989 30 155.707 29.5652 158.043 28.3696L 156.25 23.587C 154.565 24.4565 152.609 24.837 150.326 24.837C 145.435 24.837 140.652 21.413 140.652 15ZM 174.457 5.59783L 182.174 5.59783L 182.174 0.543477L 160.761 0.543477L 160.761 5.59783L 168.478 5.59783L 168.478 29.5109L 174.457 29.5109L 174.457 5.59783ZM 192.5 0.543477L 186.522 0.543477L 186.522 19.1304L 192.5 19.1304L 192.5 0.543477ZM 224.62 0.543477L 218.424 0.543477L 210.543 21.087L 202.663 0.543477L 196.467 0.543477L 208.152 29.5109L 212.935 29.5109L 224.62 0.543477Z"/>
</defs>
</svg>

<svg width="225" height="30" viewBox="0 0 225 30" xmlns="http://www.w3.org/2000/svg" xmlns:xlink="http://www.w3.org/1999/xlink"><title>correctiv</title><desc>Created using Figma</desc><use xlink:href="#a" fill="#BDBDBD"/><defs><path id="a" d="M186.522 29.51h5.978v-6.032h-5.978v6.033zM6.032 15c0-5.815 4.077-9.837 9.294-9.837 2.283 0 4.457.38 6.033 1.141l1.847-4.728C20.706.435 18.098 0 15.217 0 7.065 0 0 5.978 0 15c0 9.294 7.228 15 15.543 15 2.827 0 5.544-.435 7.88-1.63l-1.847-4.783c-1.685.87-3.641 1.25-5.924 1.25-4.891 0-9.62-3.424-9.62-9.837zm45.055 0c0 5.815-4.24 9.837-9.457 9.837-5.271 0-9.456-4.022-9.456-9.837 0-5.815 4.239-9.837 9.456-9.837 5.218 0 9.457 4.022 9.457 9.837zm6.033 0c0-8.75-6.848-15-15.49-15-8.695 0-15.489 6.196-15.489 15s6.848 15 15.49 15c8.695 0 15.489-6.196 15.489-15zm13.152 1.087h-3.044V5.489h3.913c3.261 0 5.49 1.848 5.49 5.272 0 3.533-2.229 5.326-6.36 5.326zM83.26 29.511l-9.185-9.022c5.218-1.141 8.587-4.783 8.587-9.783C82.663 5.054 78.37.543 71.25.543h-9.946v28.968h5.979v-8.75l8.478 8.75h7.5zm13.152-13.424H93.37V5.489h3.913c3.26 0 5.489 1.848 5.489 5.272 0 3.533-2.229 5.326-6.359 5.326zm13.044 13.424l-9.185-9.022c5.217-1.141 8.587-4.783 8.587-9.783 0-5.652-4.294-10.163-11.413-10.163H87.5v28.968h5.978v-8.75l8.479 8.75h7.5zm4.13 0h18.152v-5.055H119.51v-6.032h9.946V13.37h-9.946V5.598h11.848V.543h-17.772v28.968zM140.652 15c0-5.815 4.076-9.837 9.294-9.837 2.282 0 4.456.38 6.032 1.141l1.848-4.728C155.326.435 152.717 0 149.837 0c-8.152 0-15.217 5.978-15.217 15 0 9.294 7.228 15 15.543 15 2.826 0 5.544-.435 7.88-1.63l-1.793-4.783c-1.685.87-3.641 1.25-5.924 1.25-4.891 0-9.674-3.424-9.674-9.837zm33.805-9.402h7.717V.543h-21.413v5.055h7.717V29.51h5.979V5.598zM192.5.543h-5.978V19.13h5.978V.543zm32.12 0h-6.196l-7.881 20.544-7.88-20.544h-6.196l11.685 28.968h4.783L224.62.543z"/></defs></svg>
